X: 32313
T: Pigeon On The Gate, The
R: reel
M: 4/4
K: Edorian
|BE ~E2 Bdcd|BdAd BAFE|~D2DB AD (3(FED)|DEFA BAFA|
BE{F}EE dE{F}EE|BE{F}EB {c}BAFE|D/E/D FA dfed|{e}dBAF EFGA|

